packages/symbols/svgs/solid/text-solid.svg

<svg width="16" height="16" viewBox="0 0 16 16" xmlns="http://www.w3.org/2000/svg"><g clip-path="url(#a)"><path d="M0 0v6h1l2-3h3v10l-3 2v1h10v-1l-3-2V3h3l2 3h1V0H0Z"/></g><defs><clipPath id="a"><path fill="#fff" d="M0 0h16v16H0z"/></clipPath></defs></svg>

<svg width="16" height="16" viewBox="0 0 16 16" fill="none" xmlns="http://www.w3.org/2000/svg">
<g clip-path="url(#clip0_1211_3896)">
<path d="M0 0V6H1L3 3H6V13L3 15V16H13V15L10 13V3H13L15 6H16V0H0Z" fill="black"/>
</g>
<defs>
<clipPath id="clip0_1211_3896">
<rect width="16" height="16" fill="white"/>
</clipPath>
</defs>
</svg>
